X: 38544
T: Stereocanto
R: slip jig
M: 9/8
K: Bminor
M:7/8
|:~a2- a2 agf|ee d2 ba/g/f|ad gf edf|BB A2 EFA|
ef EF ABd|ee d2 ABd|ef EF ABd|eA Bd e{f}ed:|
|:~g2 zf/ e/def|e2 AA EFd|c2 A2 AGF|GA G/F/E DEF|
DE ED EFA|BE FA Bde|~f2 ed edB|1 A/B/d ef gab:|2 B2- B2- B3||

